!!!COM: Hugo Wolf
!!!CNT: Deutscher
!!!TXO: Deutsche 
!!!OTL: Anakreons Grab
!!!OPR: Gedichte von J.W. v. Goethe
!!!ONM: No. 29
!!!ODT: 1888/
!!!LYR: Goethe
!!!ENC: Brian Bice
!!!YOR: 65 Songs for voice and piano, International Music Company, 1960
!!NB: Vocal melody and text only encoded.
**kern	**silbe
*clefG2	*
*k[b-]	*
*M12/8	*
=3	=3
{4a	{Wo
8a	die
8.cc	Ro-
16cc	-se
8cc	hier
[4.bn	blu2ht,
8bn]}	|}
8r	.
{8bn	{wo
=4	=4
8.b-	Re-
16b-	-ben
8b-	und
8dd	Lor-
8ee	-beer
8dd	sich
4dd	schlin-
8cc#}	-gen,}
4r	.
8r	.
=5	=5
{4ccn	{wo
8ccn	das
8.ff	Tur-
16ff	-tel-
8ff	-chen
(8ee	lockt,
[4dd	|
4dd])}	|}
8r	.
=6	=6
{8dd	{wo
8dd	sich
8dd	das
8dd	Grill-
8cc	-chen
8a	er-
[4.g	-go2tzt,
8g]}	|}
8r	.
8r	.
=7	=7
{4a	{welch
8a	win
4a-	Grab
8a-	ist
8g	heir,
8r	.
[8g	das
8g]	|
[4g	al-
=8	=8
8g]	|
8an	-le
[8bn	Go2t-
8bn]	|
8cc}	-ter}
{8dd	{mit
[2.ff	Le-
=9	=9
4ff]	|
8ee-	-ben
4a-	scho2n
8dd-	be-
(4dd-	pflanzt
8cc)	|
8r	.
8cc	und
8cc-	ge-
=10	=10
[4.ff	-ziert?
4ff]}	|}
8r	.
2.r	.
=11	=11
4r	.
{8b-	{Es
4.b-	ist
4r	.
8b-	A-
[4.d	-na-
=12	=12
4d]	|
8f	-kre-
4.f	-ons
2.f}	Ruh.}
=15	=15
{4ff	{Fru2h-
8cc	-ling,
8cc	Sommer
8b-	|
8a	und
4g#	Herbst
8g#	ge-
[4.dd	-noss
=16	=16
8dd]}	|}
{8dd	{der
[8dd	glu2ck
8dd]	|
8ff	li-
8ee	-che
4dd	Dich-
8cc#}	-ter;}
4r	.
8r	.
=17	=17
8r	.
{8ccn	{vor
8ccn	dem
4ccn	Win-
8f	-ter
8r	.
8f	hat
8f	ihn
[4.dd	end-
=18	=18
8dd]	|
8cc	-lich
8dd	der
8a	Hu2-
8g	-gel
16r	.
16f	ge-
2.f}	-sch2tzt.}
*-	*-
